build/img/svg/ig.svg

<svg width="10" height="10" viewBox="0 0 10 10" fill="none" xmlns="http://www.w3.org/2000/svg">
<path d="M1.94922 9H0.876953V0.46875H1.94922V9ZM9.16797 7.93945L8.98047 8.17383C8.44141 8.80273 7.65234 9.11719 6.61328 9.11719C5.69141 9.11719 4.9668 8.8125 4.43945 8.20312C3.91602 7.58984 3.64844 6.72461 3.63672 5.60742V3.93164C3.63672 2.73633 3.875 1.8418 4.35156 1.24805C4.83203 0.650391 5.54883 0.351562 6.50195 0.351562C7.31445 0.351562 7.94922 0.578125 8.40625 1.03125C8.86719 1.48437 9.12109 2.13086 9.16797 2.9707H8.0957C8.05273 2.43945 7.9043 2.02539 7.65039 1.72852C7.40039 1.42773 7.01953 1.27734 6.50781 1.27734C5.89453 1.27734 5.44531 1.47852 5.16016 1.88086C4.875 2.2793 4.72656 2.91797 4.71484 3.79688V5.53711C4.71484 6.39648 4.87891 7.05664 5.20703 7.51758C5.53516 7.97461 6.00586 8.20312 6.61914 8.20312C7.19727 8.20312 7.63672 8.0625 7.9375 7.78125L8.0957 7.63477V5.66602H6.53711V4.75195H9.16797V7.93945Z" fill="white"/>
</svg>

<svg width="10" height="10" fill="none" xmlns="http://www.w3.org/2000/svg"><path d="M1.95 9H.876V.469h1.072V9zm7.218-1.06l-.188.234c-.539.629-1.328.943-2.367.943-.922 0-1.646-.305-2.174-.914-.523-.613-.79-1.478-.802-2.596V3.932c0-1.196.238-2.09.715-2.684.48-.598 1.197-.896 2.15-.896.812 0 1.447.226 1.904.68.461.452.715 1.099.762 1.939H8.096c-.043-.532-.192-.946-.446-1.242-.25-.301-.63-.452-1.142-.452-.613 0-1.063.202-1.348.604-.285.398-.433 1.037-.445 1.916v1.74c0 .86.164 1.52.492 1.98.328.458.799.686 1.412.686.578 0 1.018-.14 1.319-.422l.158-.146V5.666H6.537v-.914h2.631v3.187z" fill="#fff"/></svg>
